X: 1
P: Miss Farquharson Of Invercauld
C: William Marshall
C: Hunter Colln., arr. T. Traub 12-19-97
R: strathspey
M: C
L: 1/8
K: F
|: F>D|"F"C<FFG A>G A<F|"Gm"D<GG>A B>G B<c|"Bb"d<fc>A "Gm"G>F G<A|"C"C>F E<G "F"F2 :|
e|"F"f<cc>A f>c f<a|f>c f<a "C"g3 a|"F"f>c c<A "Dm"cg|"Gm"f>dc>A "C"G3 e|
"F"f<cc>A f>c f<a|f>c f<a "C"g3 a|"F"f>c c<A "Bb"cg |"C"f>d c<A "F"F2 |]
